material/.icons/material/numeric-3-box-multiple.svg

<svg xmlns="http://www.w3.org/2000/svg" viewBox="0 0 24 24"><path d="M3 5v16h16v2H3a2 2 0 01-2-2V5h2m14 8v-1.5a1.5 1.5 0 00-1.5-1.5A1.5 1.5 0 0017 8.5V7a2 2 0 00-2-2h-4v2h4v2h-2v2h2v2h-4v2h4a2 2 0 002-2m4-12a2 2 0 012 2v14a2 2 0 01-2 2H7a2 2 0 01-2-2V3a2 2 0 012-2h14z"/></svg>

<?xml version="1.0" encoding="UTF-8"?><!DOCTYPE svg PUBLIC "-//W3C//DTD SVG 1.1//EN" "http://www.w3.org/Graphics/SVG/1.1/DTD/svg11.dtd"><svg xmlns="http://www.w3.org/2000/svg" xmlns:xlink="http://www.w3.org/1999/xlink" version="1.1" id="mdi-numeric-3-box-multiple" width="24" height="24" viewBox="0 0 24 24"><path d="M3,5V21H19V23H3A2,2 0 0,1 1,21V5H3M17,13V11.5A1.5,1.5 0 0,0 15.5,10A1.5,1.5 0 0,0 17,8.5V7C17,5.89 16.1,5 15,5H11V7H15V9H13V11H15V13H11V15H15A2,2 0 0,0 17,13M21,1A2,2 0 0,1 23,3V17A2,2 0 0,1 21,19H7A2,2 0 0,1 5,17V3A2,2 0 0,1 7,1H21Z" /></svg>
